flaticon/hand-gestures/tap.svg

<svg xmlns="http://www.w3.org/2000/svg" width="32" height="32" viewBox="0 0 24 24">
    <path d="M5.398438 7.601562C5.640625 7.601562 5.800781 7.441406 5.800781 7.199219 5.800781 6.960938 5.640625 6.800781 5.398438 6.800781L4.601562 6.800781 4.601562 5.601562C4.601562 5.359375 4.441406 5.199219 4.199219 5.199219 3.960938 5.199219 3.800781 5.359375 3.800781 5.601562L3.800781 7.199219C3.800781 7.441406 3.960938 7.601562 4.199219 7.601562zM13.800781 4.800781C11.359375 4.800781 9.398438 6.761719 9.398438 9.199219L9.398438 13.601562 18.199219 13.601562 18.199219 9.199219C18.199219 6.761719 16.238281 4.800781 13.800781 4.800781zM17.398438 12.800781L10.199219 12.800781 10.199219 9.199219C10.199219 7.199219 11.800781 5.601562 13.800781 5.601562 15.800781 5.601562 17.398438 7.199219 17.398438 9.199219zM17.800781 16.398438L9.800781 16.398438C9.558594 16.398438 9.398438 16.558594 9.398438 16.800781 9.398438 17.039062 9.558594 17.199219 9.800781 17.199219L17.800781 17.199219C18.039062 17.199219 18.199219 17.039062 18.199219 16.800781 18.199219 16.558594 18.039062 16.398438 17.800781 16.398438zM17.800781 18L9.800781 18C9.558594 18 9.398438 18.160156 9.398438 18.398438 9.398438 18.640625 9.558594 18.800781 9.800781 18.800781L17.800781 18.800781C18.039062 18.800781 18.199219 18.640625 18.199219 18.398438 18.199219 18.160156 18.039062 18 17.800781 18zM17.800781 18"/>
    <path d="M 23.398438 9.601562 C 23.398438 4.320312 19.078125 0 13.800781 0 C 10.695312 0 7.785156 1.507812 5.976562 4.0625 C 5.453125 3.769531 4.847656 3.601562 4.199219 3.601562 C 2.199219 3.601562 0.601562 5.199219 0.601562 7.199219 C 0.601562 9.199219 2.199219 10.800781 4.199219 10.800781 C 4.226562 10.800781 4.253906 10.796875 4.277344 10.796875 C 4.570312 13.257812 5.839844 15.519531 7.800781 17.074219 L 7.800781 18 C 7.800781 21.320312 10.480469 24 13.800781 24 C 17.121094 24 19.800781 21.320312 19.800781 18 L 19.800781 17.074219 C 22.101562 15.234375 23.398438 12.53125 23.398438 9.601562 Z M 1.398438 7.199219 C 1.398438 5.640625 2.640625 4.398438 4.199219 4.398438 C 4.792969 4.398438 5.335938 4.578125 5.785156 4.886719 L 5.878906 4.960938 C 6.464844 5.414062 6.835938 6.027344 6.957031 6.710938 C 6.957031 6.714844 6.957031 6.714844 6.957031 6.71875 C 6.964844 6.761719 6.972656 6.808594 6.976562 6.855469 C 6.980469 6.863281 6.980469 6.875 6.980469 6.882812 C 6.988281 6.925781 6.988281 6.964844 6.992188 7.007812 C 6.992188 7.019531 6.996094 7.03125 6.996094 7.042969 C 7 7.09375 7 7.148438 7 7.199219 C 7 7.246094 7 7.289062 6.996094 7.335938 C 6.996094 7.367188 6.992188 7.402344 6.988281 7.433594 C 6.988281 7.445312 6.988281 7.453125 6.988281 7.460938 C 6.867188 8.742188 5.875 9.773438 4.601562 9.960938 L 4.460938 9.988281 C 4.375 9.996094 4.289062 10 4.199219 10 C 2.640625 10 1.398438 8.761719 1.398438 7.199219 Z M 13.800781 23.199219 C 10.921875 23.199219 8.601562 20.878906 8.601562 18 L 8.601562 9.199219 C 8.601562 6.320312 10.921875 4 13.800781 4 C 16.679688 4 19 6.320312 19 9.199219 L 19 16.808594 C 18.996094 16.835938 18.996094 16.863281 19 16.886719 L 19 18 C 19 20.878906 16.679688 23.199219 13.800781 23.199219 Z M 19.800781 16.023438 L 19.800781 9.199219 C 19.800781 5.878906 17.121094 3.199219 13.800781 3.199219 C 10.480469 3.199219 7.800781 5.878906 7.800781 9.199219 L 7.800781 16.007812 C 6.316406 14.605469 5.332031 12.726562 5.082031 10.691406 C 6.554688 10.328125 7.65625 9.066406 7.785156 7.507812 C 7.785156 7.503906 7.789062 7.496094 7.789062 7.488281 C 7.789062 7.445312 7.792969 7.40625 7.796875 7.363281 C 7.796875 7.308594 7.800781 7.253906 7.800781 7.199219 C 7.800781 7.136719 7.796875 7.070312 7.796875 7.007812 C 7.792969 7 7.792969 6.992188 7.792969 6.980469 C 7.789062 6.925781 7.785156 6.871094 7.78125 6.816406 C 7.78125 6.8125 7.777344 6.808594 7.777344 6.804688 C 7.679688 5.894531 7.25 5.089844 6.605469 4.511719 C 8.246094 2.199219 10.921875 0.800781 13.800781 0.800781 C 18.640625 0.800781 22.601562 4.761719 22.601562 9.601562 C 22.601562 12.078125 21.597656 14.363281 19.800781 16.023438 Z M 19.800781 16.023438"/>
</svg>

<svg xmlns="http://www.w3.org/2000/svg" width="32" height="32" viewBox="0 0 24 24">
    <path d="M5.398 7.602c.243 0 .403-.16.403-.403 0-.238-.16-.398-.403-.398h-.796V5.6c0-.242-.16-.402-.403-.402-.238 0-.398.16-.398.403v1.597c0 .242.16.403.398.403zm0 0M13.8 4.8a4.389 4.389 0 0 0-4.402 4.4v4.402H18.2V9.199a4.388 4.388 0 0 0-4.398-4.398zm3.598 8H10.2V9.2c0-2 1.602-3.598 3.602-3.598 2 0 3.597 1.597 3.597 3.597zm0 0M17.8 16.398h-8c-.241 0-.402.16-.402.403 0 .238.16.398.403.398h8c.238 0 .398-.16.398-.398 0-.242-.16-.403-.398-.403zm0 0M17.8 18h-8c-.241 0-.402.16-.402.398 0 .243.16.403.403.403h8c.238 0 .398-.16.398-.403 0-.238-.16-.398-.398-.398zm0 0"/>
    <path d="M23.398 9.602C23.398 4.32 19.078 0 13.801 0a9.58 9.58 0 0 0-7.824 4.063 3.626 3.626 0 0 0-1.778-.461c-2 0-3.597 1.597-3.597 3.597s1.597 3.602 3.597 3.602c.028 0 .055-.004.078-.004a9.456 9.456 0 0 0 3.524 6.277V18c0 3.32 2.68 6 6 6s6-2.68 6-6v-.926a9.483 9.483 0 0 0 3.597-7.472zm-22-2.403c0-1.558 1.243-2.8 2.801-2.8.594 0 1.137.18 1.586.488l.094.074a2.822 2.822 0 0 1 1.078 1.75v.008a1.439 1.439 0 0 1 .023.164c.008.043.008.082.012.125 0 .012.004.023.004.035.004.05.004.105.004.156 0 .047 0 .09-.004.137a.822.822 0 0 1-.008.098v.027a2.804 2.804 0 0 1-2.386 2.5l-.141.027a2.783 2.783 0 0 1-3.062-2.79zm12.403 16A5.19 5.19 0 0 1 8.6 18V9.2a5.19 5.19 0 0 1 5.2-5.2A5.19 5.19 0 0 1 19 9.2v7.609a.262.262 0 0 0 0 .078V18a5.19 5.19 0 0 1-5.2 5.2zm6-7.176V9.2c0-3.32-2.68-6-6-6s-6 2.68-6 6v6.809c-1.485-1.403-2.469-3.281-2.719-5.317a3.57 3.57 0 0 0 2.703-3.183c0-.004.004-.012.004-.02 0-.043.004-.082.008-.125 0-.054.004-.11.004-.164 0-.062-.004-.129-.004-.191-.004-.008-.004-.016-.004-.028l-.012-.164c0-.003-.004-.007-.004-.011a3.583 3.583 0 0 0-1.172-2.293A8.821 8.821 0 0 1 13.801.8c4.84 0 8.8 3.96 8.8 8.8a8.66 8.66 0 0 1-2.8 6.422zm0 0"/>
</svg>
